X: 636
T: Adam's Apple
R: jig
M: 6/8
K: Gmajor
|:DGG EGG|DGG =cBA|DGG EGd|edg edB|
GAG EGG|DGG =cBA|dBd gdB|AdB =cBA:|
|:gag edB|A=cB AGE|DGG Bdd|gbg afd|gag edB|
A=cB AGe|1 gag egg|edB GBd:|2 gag edB|A=cB AGE|G4||

